X: 5897
T: Camber Lasses, The
R: reel
M: 4/4
K: Amajor
a|fecB A2AF|EFAB cBBa|fecB A2AF|EFAB cAA2|
ceBc A2AF|EFAB cBBa|fecB A2AF|EFAB cAA2||
e2ae feae|ceae cBB2|e2ae fgaf|ecBd cAA2|
e2ae feae|ceae cBB2|ecef a2af|ecBd cAA2||

